X:1
T:Al partir del mio Sole
T:Ludovico Bellanda Veronese
T:Source : Musische di L.Bellanda---Venetia---G.Vincenti---1601. Editor : André Vierendeels (29/06/15).
T:Notes : Original clefs : C4, F4 Figures in BC are notated in original print Lyrics by Giovanni Battista Guarini (Il pastor fide) 
T:Al partir del mio Sole
C:Ludovico Bellanda Veronese
%%score 1 2
L:1/8
Q:1/4=70
M:4/4
K:F
V:1 treble-8 nm="Tenor" snm="T"
V:2 bass nm="BC" snm="BC"
V:1
 F2 G2 A4- | A6 AB | c3 B c4 | ^F4 G4- | G4 ^F2 E2 | ^F4 E4 | D2 A2 B4- | B2 AB/c/ A4 | G8 | %9
w: Al par- tir|_ del mio|So- * le|pian- si|_ la vis-|ta su-|a, la vi-|* ta _ _ mi-|a,|
 z2 AB c4- | c4 =B2 A2 | =B2 z B e4- | e2 d/c/=B B4 | A8 :: z2 c2 c3 d | c2 F2 G/F/E/F/ G/E/F/E/ | %16
w: ch'al suo du-|* ro par-|tir da me|_ par- * * ti-|a.|Or ch'e- gli|tor- na'i can- * * * * * * *|
 D/E/F/D/ E/D/C/D/ E/F/G/F/ E/F/G/E/ | F8 | z2 A2 B/c/B/A/ G/A/B/G/ | %19
w: |to,|i can- * * * * * * *|
 A/B/A/G/ F/G/A/F/ G/A/G/F/ E/F/G/E/ | F/G/F/E/ D/E/F/D/ E/D/C/D/ E/F/G/E/ | F8 | ^F2 FF F2 G2 | %23
w: ||to,|e con la ri- mem-|
 A3 A A2 A2 | A4 G4 | E2 E2 d4- | d4 ^c4 | ^c4 =B4 | =B4 A4 | z2 ^FG A2 GA | =BABc d4 | c8 | %32
w: bran- za di quel|gior- *|no si pien|_ d'a-|ma- ro|pian- to|ad- dol- cis- co la|gio- ia del ri- tor-|no.|
 c2 B2 A2 GF- | F2 E2 F4 | c2 B2 A2 GF | G4 F4 | d6 c2 | B2 AG A4 | G4 z FFG | AFAB C2 F>G | %40
w: Oh fe- li- ce par-|* ti- ta,|Oh fe- li- ce par-|ti- ta,|Oh fe-|li- ce par- ti-|ta, che fai piu|ca- ra col mo- rir la _|
 A E2 F G4 | F8 :| %42
w: _ vi- * *|ta.|
V:2
 F,6 E,2 | D,2 C,B,, A,,2 G,,2 | F,,8 |"^#6""^7" A,,8 |"^7""^#6" A,,8 |"^#6""^5" A,,8 | %6
"^#3""^4" D,8 |"^#3" D,8 | G,,8 |"^6" D,4 E,4 |"^-natural" ^F,4 G,4 |"^#3""^4" E,8 |"^#3" E,8 | %13
 A,,8 :: F,8 | F,2 D,2 C,4- | C,8 | F,,8 | F,,4 G,,4 | F,,4 C,4 | D,4 C,4 | F,,8 | %22
"^#""^#" D,4 D,2 G,,2 | D,6 C,2 |"^5          6" B,,8 |"^#10""^11" A,,8 |"^#10" A,,8 | %27
"^4""^5""^#" D,8 |"^#3" D,8 |"^#3" D,8 |"^-natural" G,,8 | C,8 | F,,2 G,,2 A,,2 B,,2 | C,4 F,,4 | %34
 A,,2 B,,2 C,2 D,2 | C,4 F,,4 | G,,2 A,,2 B,,2 C,2 |"^#3""^#3""^4" D,4 D,4 |"^-natural" G,,4 F,,4 | %39
 F,,3 G,, A,,2 B,,2 |"^10      11       10" C,4 C,4 | F,,8 :| %42

